X: 1589
T: The Mullingar Races
M:2/4
L:1/16
R:Hornpipe
N:"2nd Setting."
B:O'Neill's 1589
N:"Collected by J.O'Neill."
Z:Transcribed by Michael D. Long, 9/29/98
K:G
D2|GABG ABcA|BcdB cedc|(3BdB G>B (3AcA F>A|(3GBA (3GFE D2D2|
GABG ABcA|BcdB cfdc|(3BdB G>B (3AcA FA|G2G2 G2:|\
|:d2 gfga gdBd|gfga gdBd|
efge abag|fdec d2(dc)|(3(Bcd) B>G AFDc|(3(Bcd) B>G AFDc|\
BdcB AcBA|G2G2 G2|]


